24x24/mimetypes/application-x-php.svg

<svg xmlns="http://www.w3.org/2000/svg" width="24" height="24" version="1.1">
 <path style="opacity:0.2" d="m 5,2.5 c -0.554,0 -1,0.446 -1,1 v 18 c 0,0.554 0.446,1 1,1 h 14 c 0.554,0 1,-0.446 1,-1 V 8.5 L 14.5,8 14,2.5 Z"/>
 <path fill="#8561c1" d="m5 2c-0.554 0-1 0.446-1 1v18c0 0.554 0.446 1 1 1h14c0.554 0 1-0.446 1-1v-13l-5.5-0.5-0.5-5.5z"/>
 <path fill="#fff" opacity=".2" d="m5 2c-0.554 0-1 0.446-1 1v0.5c0-0.554 0.446-1 1-1h9l5.5 5.5h0.5l-6-6z"/>
 <path style="opacity:0.2" d="m 14,2.5 v 5 c 0,0.5523 0.44772,1 1,1 h 5 z"/>
 <path fill="#ad81f2" d="m14 2v5c0 0.5523 0.44772 1 1 1h5l-6-6z"/>
 <path style="opacity:0.2" d="M 11,12.5 7,16.066406 11,19.5 V 18 L 8.75,16 11,14 Z m 2.5,0 A 0.50005,0.50005 0 0 0 13,13 v 1 a 0.50005,0.50005 0 1 0 1,0 v -0.5 h 1 v 1.732422 l -1.277344,0.851562 A 0.50005,0.50005 0 0 0 13.5,16.484375 v 1 a 0.50005,0.50005 0 1 0 1,0 v -0.732422 l 1.277344,-0.851562 A 0.50005,0.50005 0 0 0 16,15.5 V 13 a 0.50005,0.50005 0 0 0 -0.5,-0.5 z m 0.5,6 A 0.5,0.5 0 0 0 13.5,19 0.5,0.5 0 0 0 14,19.5 0.5,0.5 0 0 0 14.5,19 0.5,0.5 0 0 0 14,18.5 Z"/>
 <path style="fill:#f4f4f7" d="M 11 12 L 7 15.566406 L 11 19 L 11 17.5 L 8.75 15.5 L 11 13.5 L 11 12 z M 13.5 12 A 0.50005 0.50005 0 0 0 13 12.5 L 13 13.5 A 0.50005 0.50005 0 1 0 14 13.5 L 14 13 L 15 13 L 15 14.732422 L 13.722656 15.583984 A 0.50005 0.50005 0 0 0 13.5 15.984375 L 13.5 16.984375 A 0.50005 0.50005 0 1 0 14.5 16.984375 L 14.5 16.251953 L 15.777344 15.400391 A 0.50005 0.50005 0 0 0 16 15 L 16 12.5 A 0.50005 0.50005 0 0 0 15.5 12 L 13.5 12 z M 14 18 A 0.5 0.5 0 0 0 13.5 18.5 A 0.5 0.5 0 0 0 14 19 A 0.5 0.5 0 0 0 14.5 18.5 A 0.5 0.5 0 0 0 14 18 z"/>
</svg>

<svg xmlns="http://www.w3.org/2000/svg" width="24" height="24"><path style="opacity:.2" d="M5 2.5c-.554 0-1 .446-1 1v18c0 .554.446 1 1 1h14c.554 0 1-.446 1-1v-13L14.5 8 14 2.5z"/><path fill="#8561c1" d="M5 2c-.554 0-1 .446-1 1v18c0 .554.446 1 1 1h14c.554 0 1-.446 1-1V8l-5.5-.5L14 2z"/><path fill="#fff" opacity=".2" d="M5 2c-.554 0-1 .446-1 1v.5c0-.554.446-1 1-1h9L19.5 8h.5l-6-6z"/><path style="opacity:.2" d="M14 2.5v5a1 1 0 0 0 1 1h5z"/><path fill="#ad81f2" d="M14 2v5a1 1 0 0 0 1 1h5l-6-6z"/><path style="opacity:.2" d="m11 12.5-4 3.566 4 3.434V18l-2.25-2L11 14zm2.5 0a.5.5 0 0 0-.5.5v1a.5.5 0 1 0 1 0v-.5h1v1.732l-1.277.852a.5.5 0 0 0-.223.4v1a.5.5 0 1 0 1 0v-.732l1.277-.852a.5.5 0 0 0 .223-.4V13a.5.5 0 0 0-.5-.5zm.5 6a.5.5 0 0 0-.5.5.5.5 0 0 0 .5.5.5.5 0 0 0 .5-.5.5.5 0 0 0-.5-.5z"/><path style="fill:#f4f4f7" d="m11 12-4 3.566L11 19v-1.5l-2.25-2 2.25-2V12zm2.5 0a.5.5 0 0 0-.5.5v1a.5.5 0 1 0 1 0V13h1v1.732l-1.277.852a.5.5 0 0 0-.223.4v1a.5.5 0 1 0 1 0v-.732l1.277-.852A.5.5 0 0 0 16 15v-2.5a.5.5 0 0 0-.5-.5h-2zm.5 6a.5.5 0 0 0-.5.5.5.5 0 0 0 .5.5.5.5 0 0 0 .5-.5.5.5 0 0 0-.5-.5z"/></svg>
